assets/icons/drop.svg

<svg xmlns="http://www.w3.org/2000/svg" viewBox="0 0 16 16" role="presentation" aria-hidden="true"><path fill-rule="evenodd" clip-rule="evenodd" d="M8.0545 2C8.2286 2.00002 8.39086 2.08812 8.48571 2.23412L11.8404 7.39812C11.8453 7.40576 11.8501 7.41352 11.8546 7.42142C12.2392 8.08841 12.4414 8.84484 12.4411 9.61474C12.4407 10.3846 12.2378 11.1409 11.8526 11.8075C11.4675 12.4742 10.9137 13.0277 10.2468 13.4126C9.58003 13.7974 8.82369 14 8.05379 14C7.28389 14 6.52754 13.7974 5.86073 13.4126C5.19392 13.0277 4.64012 12.4742 4.25496 11.8075C3.86981 11.1409 3.66686 10.3846 3.6665 9.61474C3.66615 8.85353 3.86386 8.10548 4.23999 7.44403C4.24802 7.42834 4.2569 7.41298 4.26664 7.398L7.62323 2.23401C7.71811 2.08804 7.8804 1.99998 8.0545 2ZM5.14225 7.93823C4.84902 8.4481 4.6948 9.02605 4.69508 9.61427C4.69535 10.2037 4.85072 10.7826 5.14558 11.293C5.44043 11.8033 5.8644 12.2271 6.37488 12.5217C6.88536 12.8163 7.46439 12.9714 8.05379 12.9714C8.64319 12.9714 9.22221 12.8163 9.7327 12.5217C10.2432 12.2271 10.6671 11.8033 10.962 11.293C11.2569 10.7826 11.4122 10.2037 11.4125 9.61427C11.4128 9.02926 11.2602 8.45441 10.9701 7.94659L8.05431 3.45814L5.14225 7.93823Z" fill="currentColor"/><path fill-rule="evenodd" clip-rule="evenodd" d="M3.6678 9.61479C3.6678 9.33076 3.89805 9.1005 4.18209 9.1005H11.9281C12.2121 9.1005 12.4424 9.33076 12.4424 9.61479C12.4424 9.89882 12.2121 10.1291 11.9281 10.1291H4.18209C3.89805 10.1291 3.6678 9.89882 3.6678 9.61479Z" fill="currentColor"/><path fill-rule="evenodd" clip-rule="evenodd" d="M7.77323 9.25113C7.97407 9.45198 7.97407 9.7776 7.77323 9.97844L5.38811 12.3636C5.18727 12.5644 4.86164 12.5644 4.6608 12.3636C4.45996 12.1627 4.45996 11.8371 4.6608 11.6363L7.04592 9.25113C7.24676 9.05029 7.57239 9.05029 7.77323 9.25113Z" fill="currentColor"/><path fill-rule="evenodd" clip-rule="evenodd" d="M11.0007 9.25113C11.2016 9.45198 11.2016 9.7776 11.0007 9.97844L7.29555 13.6836C7.09471 13.8845 6.76908 13.8845 6.56824 13.6836C6.3674 13.4828 6.3674 13.1571 6.56824 12.9563L10.2734 9.25113C10.4743 9.05029 10.7999 9.05029 11.0007 9.25113Z" fill="currentColor"/></svg>

<svg xmlns="http://www.w3.org/2000/svg" aria-hidden="true" viewBox="0 0 16 16"><path fill="currentColor" fill-rule="evenodd" d="M8.055 2c.174 0 .336.088.43.234l3.355 5.164.015.023a4.387 4.387 0 1 1-7.588-.023l3.356-5.164A.51.51 0 0 1 8.055 2M5.142 7.938a3.359 3.359 0 1 0 5.828.009L8.054 3.458z" clip-rule="evenodd"/><path fill="currentColor" fill-rule="evenodd" d="M3.668 9.615c0-.284.23-.514.514-.514h7.746a.514.514 0 0 1 0 1.028H4.182a.514.514 0 0 1-.514-.514" clip-rule="evenodd"/><path fill="currentColor" fill-rule="evenodd" d="M7.773 9.251a.514.514 0 0 1 0 .727l-2.385 2.386a.514.514 0 0 1-.727-.728l2.385-2.385c.2-.2.526-.2.727 0m3.227 0a.51.51 0 0 1 0 .727l-3.704 3.706a.514.514 0 1 1-.728-.728l3.705-3.705c.201-.2.527-.2.728 0" clip-rule="evenodd"/></svg>
